Suru++-Ubuntu/apps/scalable/xmoto.svg

<svg width="256" height="256" version="1.1" viewBox="0 0 67.73 67.73" xmlns="http://www.w3.org/2000/svg" xmlns:xlink="http://www.w3.org/1999/xlink">
 <defs>
  <linearGradient id="linearGradient1108" x1="296" x2="296" y1="-212" y2="202.4" gradientUnits="userSpaceOnUse">
   <stop style="stop-color:#ffffff" offset="0"/>
   <stop style="stop-color:#ffffff;stop-opacity:.09803922" offset=".135"/>
   <stop style="stop-color:#ffffff;stop-opacity:0" offset="1"/>
  </linearGradient>
  <clipPath id="clipPath1082-3-3675">
   <path d="M 361.9375,-212 C 507.2348,-212 528,-191.28677 528,-46.125 V 70.125 C 528,215.28618 507.2348,236 361.9375,236 H 214.0625 C 68.7652,236 48,215.28618 48,70.125 V -46.125 C 48,-191.28677 68.7652,-212 214.0625,-212 Z" style="fill:#8c59d9"/>
  </clipPath>
  <filter id="filter910" x="-.02" y="-.03" width="1.046" height="1.05" style="color-interpolation-filters:sRGB">
   <feGaussianBlur stdDeviation="2.32"/>
  </filter>
  <filter id="filter4569" x="-.01" y="-.01" width="1.023" height="1.025" style="color-interpolation-filters:sRGB">
   <feGaussianBlur stdDeviation="1.16"/>
  </filter>
  <filter id="filter1671" x="-.05" y="-.05" width="1.096" height="1.096" style="color-interpolation-filters:sRGB">
   <feGaussianBlur stdDeviation=".408"/>
  </filter>
  <filter id="filter1711" x="-.06" y="-.06" width="1.123" height="1.117" style="color-interpolation-filters:sRGB">
   <feGaussianBlur stdDeviation=".605"/>
  </filter>
  <filter id="filter1817" x="-.04" y="-.05" width="1.086" height="1.108" style="color-interpolation-filters:sRGB">
   <feGaussianBlur stdDeviation="2.508"/>
  </filter>
 </defs>
 <g transform="translate(0,-229.26666)">
  <g transform="matrix(.12974173 0 0 .12974173 3.8344818 227.85345)" style="enable-background:new">
   <path d="m301.90773 44.402363c148.15296 0 169.32628 21.120327 169.32628 169.1351v118.53478c0 148.01417-21.17332 169.1351-169.32628 169.1351h-150.78132c-148.15297 0-169.32628-21.12093-169.32628-169.1351v-118.53478c0-148.01477 21.17331-169.1351 169.32628-169.1351z" style="fill:none;opacity:.2;stroke-linecap:round;stroke-linejoin:round;stroke-width:8.1572313;stroke:#000000"/>
   <path transform="matrix(2.0393079,0,0,2.0393079,-29.55473,37.126102)" d="m162.53675 3.5680001c72.64865 0 83.03125 10.356615 83.03125 82.937505v58.125005c0 72.58059-10.3826 82.9375-83.03125 82.9375h-73.937496c-72.648654 0-83.031254-10.35691-83.031254-82.9375v-58.125005c0-72.58089 10.3826-82.937505 83.031254-82.937505z" style="filter:url(#filter4569);opacity:.1"/>
   <path transform="matrix(2.0393079,0,0,2.0393079,-29.55473,37.126102)" d="m162.53675 5.5680001c72.64865 0 83.03125 10.356615 83.03125 82.937505v58.125005c0 72.58059-10.3826 82.9375-83.03125 82.9375h-73.937496c-72.648654 0-83.031254-10.35691-83.031254-82.9375v-58.125005c0-72.58089 10.3826-82.937505 83.031254-82.937505z" style="filter:url(#filter910);opacity:.2"/>
   <path d="m301.90773 44.402363c148.15296 0 169.32628 21.120327 169.32628 169.1351v118.53478c0 148.01417-21.17332 169.1351-169.32628 169.1351h-150.78132c-148.15297 0-169.32628-21.12093-169.32628-169.1351v-118.53478c0-148.01477 21.17331-169.1351 169.32628-169.1351z" style="fill:#f7f7f7"/>
   <path transform="matrix(1.0196539,0,0,1.0196539,-67.14326,260.569)" d="M 361.9375,-212 C 507.2348,-212 528,-191.28677 528,-46.125 V 70.125 C 528,215.28618 507.2348,236 361.9375,236 H 214.0625 C 68.7652,236 48,215.28618 48,70.125 V -46.125 C 48,-191.28677 68.7652,-212 214.0625,-212 Z" clip-path="url(#clipPath1082-3-3675)" style="fill:none;opacity:.5;stroke-linecap:round;stroke-linejoin:round;stroke-width:8;stroke:url(#linearGradient1108)"/>
   <g transform="translate(-15.688491,-3.2063186)">
    <g transform="matrix(.94984406 -.34610176 .34610176 .94984406 -34.184671 103.67461)">
     <path transform="matrix(1.8953455 .69062118 -.69062118 1.8953455 49.219344 -76.371382)" d="m153.69727 56.716797-36.87891 12.738281-11.8457 25.425781-24.62891-11.902343-39.132812 15.193359 49.855468 21.375005 0.882813 0.38281-23.496094 47.86523 36.878905-12.73828 11.8457-25.42578 24.62696 11.90234 39.13476-15.19336-49.85742-21.375-0.88086-0.38281 23.4961-47.865233z" style="fill:#383838;stroke-width:2;stroke:#000000"/>
     <path transform="matrix(1.8953455 .69062118 -.69062118 1.8953455 49.219344 -76.371382)" d="m153.69727 56.716797-36.87891 12.738281-11.8457 25.425781-24.62891-11.902343-39.132812 15.193359 49.855468 21.375005 0.882813 0.38281-23.496094 47.86523 36.878905-12.73828 11.8457-25.42578 24.62696 11.90234 39.13476-15.19336-49.85742-21.375-0.88086-0.38281 23.4961-47.865233z" style="fill:#0e0e0e;filter:url(#filter1817);opacity:.3"/>
     <path transform="matrix(1.8953455 .69062118 -.69062118 1.8953455 49.219344 -76.371382)" d="m153.69727 56.716797-36.87891 12.738281-11.8457 25.425781-24.62891-11.902343-39.132812 15.193359 49.855468 21.375005 0.882813 0.38281-23.496094 47.86523 36.878905-12.73828 11.8457-25.42578 24.62696 11.90234 39.13476-15.19336-49.85742-21.375-0.88086-0.38281 23.4961-47.865233z" style="fill:#f40001"/>
     <path d="m144.19179 136.38867 38.46028 39.5683" style="fill:none;stroke-width:2.0172486px;stroke:#ffffff"/>
     <path d="m223.76898 211.76738 36.22424 34.84407" style="fill:none;stroke-width:2.0172486px;stroke:#ffffff"/>
    </g>
    <g transform="matrix(.94984406 -.34610176 .34610176 .94984406 -80.410849 91.111266)">
     <path transform="matrix(2.0393079,0,0,2.0393079,-29.55473,10.892486)" d="m65.990234 122.45117a30 30 0 0 0-30 30 30 30 0 0 0 30 30 30 30 0 0 0 30-30 30 30 0 0 0-30-30zm0 15a15 15 0 0 1 15 15 15 15 0 0 1-15 15 15 15 0 0 1-15-15 15 15 0 0 1 15-15z" style="fill:#130014"/>
     <path transform="matrix(4.4817672,0,0,4.4817672,-69.754197,260.72443)" d="m38.904985 6.3408196a7.2759263 7.2759263 0 0 0-6.798686 7.2519314 7.2759263 7.2759263 0 0 0 7.275927 7.275925 7.2759263 7.2759263 0 0 0 3.988563-1.197102 7.319645 7.0081702 0 0 1-1.964065 0.256843 7.319645 7.0081702 0 0 1-4.449807-1.453945 5.4569449 5.4569449 0 0 1-3.031414-4.881721 5.4569449 5.4569449 0 0 1 0.224845-1.538369 7.319645 7.0081702 0 0 1 4.754637-5.7135624z" style="fill:#383838"/>
     <path transform="matrix(2.0393079,0,0,2.0393079,-29.55473,10.892486)" d="m65.990234 132.45117a19.999999 19.999999 0 0 0-20 20 19.999999 19.999999 0 0 0 20 20 19.999999 19.999999 0 0 0 20-20 19.999999 19.999999 0 0 0-20-20zm0 5a15 15 0 0 1 15 15 15 15 0 0 1-15 15 15 15 0 0 1-15-15 15 15 0 0 1 15-15z" style="fill:#bababa"/>
     <path transform="matrix(2.0393079,0,0,2.0393079,-29.55473,10.892486)" d="m70.349609 127.3457c-1.175644 2e-3 -2.341512 0.11179-3.486328 0.31641a22.499999 22.499999 0 0 1 0.511719-0.0176 22.499999 22.499999 0 0 1 22.5 22.5 22.499999 22.499999 0 0 1-0.101562 2.05859c0.390497-1.56382 0.596435-3.18664 0.597656-4.83593 0-11.05821-8.963278-20.02149-20.021485-20.02149z" style="fill:#ffffff;filter:url(#filter1711)"/>
     <path d="m107.0789 312.71005a10.19654 10.19654 0 0 0-4.90709 1.27457 10.19654 10.19654 0 0 1 0.0836-4e-3 10.19654 10.19654 0 0 1 10.19654 10.19653 10.19654 10.19654 0 0 1-5.28547 8.92198 10.19654 10.19654 0 0 0 10.10892-10.19257 10.19654 10.19654 0 0 0-10.19654-10.19654z" style="fill:#383838"/>
     <path transform="matrix(2.0393079,0,0,2.0393079,-29.55473,10.892486)" d="m58.851562 138.47656-1.703124 1.04883 7.978515 12.96289-16.095703-0.48828-0.06055 2 15.796875 0.47852-7.628906 13.01562 1.724609 1.01172 7.865235-13.41602 6.640062 10.69777 1.703124-1.04883-6.298264-10.13917 13.197265 0.40039 0.06055-2-13.832031-0.41992 7.664062-13.07422-1.726562-1.01172-7.451172 12.71289z" style="fill:#bababa"/>
     <circle cx="104.022" cy="323.908" r="10.197" style="fill:#0a0707;filter:url(#filter1671);opacity:.3"/>
     <circle cx="104.022" cy="323.908" r="9.177" style="fill:#bababa"/>
    </g>
    <g transform="matrix(-.94984406 .34610176 -.34610176 -.94984406 564.82197 548.67517)">
     <path transform="matrix(2.0393079,0,0,2.0393079,-29.55473,10.892486)" d="m65.990234 122.45117a30 30 0 0 0-30 30 30 30 0 0 0 30 30 30 30 0 0 0 30-30 30 30 0 0 0-30-30zm0 15a15 15 0 0 1 15 15 15 15 0 0 1-15 15 15 15 0 0 1-15-15 15 15 0 0 1 15-15z" style="fill:#130014"/>
     <path transform="matrix(4.4817672,0,0,4.4817672,-69.754197,260.72443)" d="m38.904985 6.3408196a7.2759263 7.2759263 0 0 0-6.798686 7.2519314 7.2759263 7.2759263 0 0 0 7.275927 7.275925 7.2759263 7.2759263 0 0 0 3.988563-1.197102 7.319645 7.0081702 0 0 1-1.964065 0.256843 7.319645 7.0081702 0 0 1-4.449807-1.453945 5.4569449 5.4569449 0 0 1-3.031414-4.881721 5.4569449 5.4569449 0 0 1 0.224845-1.538369 7.319645 7.0081702 0 0 1 4.754637-5.7135624z" style="fill:#383838"/>
     <path transform="matrix(2.0393079,0,0,2.0393079,-29.55473,10.892486)" d="m65.990234 132.45117a19.999999 19.999999 0 0 0-20 20 19.999999 19.999999 0 0 0 20 20 19.999999 19.999999 0 0 0 20-20 19.999999 19.999999 0 0 0-20-20zm0 5a15 15 0 0 1 15 15 15 15 0 0 1-15 15 15 15 0 0 1-15-15 15 15 0 0 1 15-15z" style="fill:#bababa"/>
     <path transform="matrix(2.0393079,0,0,2.0393079,-29.55473,10.892486)" d="m70.349609 127.3457c-1.175644 2e-3 -2.341512 0.11179-3.486328 0.31641a22.499999 22.499999 0 0 1 0.511719-0.0176 22.499999 22.499999 0 0 1 22.5 22.5 22.499999 22.499999 0 0 1-0.101562 2.05859c0.390497-1.56382 0.596435-3.18664 0.597656-4.83593 0-11.05821-8.963278-20.02149-20.021485-20.02149z" style="fill:#ffffff;filter:url(#filter1711)"/>
     <path d="m107.0789 312.71005a10.19654 10.19654 0 0 0-4.90709 1.27457 10.19654 10.19654 0 0 1 0.0836-4e-3 10.19654 10.19654 0 0 1 10.19654 10.19653 10.19654 10.19654 0 0 1-5.28547 8.92198 10.19654 10.19654 0 0 0 10.10892-10.19257 10.19654 10.19654 0 0 0-10.19654-10.19654z" style="fill:#383838"/>
     <path transform="matrix(2.0393079,0,0,2.0393079,-29.55473,10.892486)" d="m58.851562 138.47656-1.703124 1.04883 7.978515 12.96289-16.095703-0.48828-0.06055 2 15.796875 0.47852-7.628906 13.01562 1.724609 1.01172 7.865235-13.41602 6.640062 10.69777 1.703124-1.04883-6.298264-10.13917 13.197265 0.40039 0.06055-2-13.832031-0.41992 7.664062-13.07422-1.726562-1.01172-7.451172 12.71289z" style="fill:#bababa"/>
     <circle cx="104.022" cy="323.908" r="10.197" style="fill:#0a0707;filter:url(#filter1671);opacity:.3"/>
     <circle cx="104.022" cy="323.908" r="9.177" style="fill:#bababa"/>
    </g>
   </g>
  </g>
 </g>
</svg>

<svg xmlns="http://www.w3.org/2000/svg" xmlns:xlink="http://www.w3.org/1999/xlink" width="256" height="256" version="1.1" viewBox="0 0 67.73 67.73">
 <defs>
  <linearGradient id="linearGradient1108" x1="296" x2="296" y1="-212" y2="202.4" gradientUnits="userSpaceOnUse" xlink:href="#linearGradient1013"/>
  <linearGradient id="linearGradient1013">
   <stop offset="0" style="stop-color:#ffffff"/>
   <stop style="stop-color:#ffffff;stop-opacity:0.09803922" offset=".135"/>
   <stop style="stop-color:#ffffff;stop-opacity:0" offset="1"/>
  </linearGradient>
  <clipPath id="clipPath1082-3-3675" clipPathUnits="userSpaceOnUse">
   <path d="M 361.9375,-212 C 507.2348,-212 528,-191.28677 528,-46.125 V 70.125 C 528,215.28618 507.2348,236 361.9375,236 H 214.0625 C 68.7652,236 48,215.28618 48,70.125 V -46.125 C 48,-191.28677 68.7652,-212 214.0625,-212 Z" style="fill:#8c59d9"/>
  </clipPath>
  <filter style="color-interpolation-filters:sRGB" id="filter910" width="1.046" height="1.05" x="-.02" y="-.03">
   <feGaussianBlur stdDeviation="2.32"/>
  </filter>
  <filter style="color-interpolation-filters:sRGB" id="filter4569" width="1.023" height="1.025" x="-.01" y="-.01">
   <feGaussianBlur stdDeviation="1.16"/>
  </filter>
  <filter style="color-interpolation-filters:sRGB" id="filter1671" width="1.096" height="1.096" x="-.05" y="-.05">
   <feGaussianBlur stdDeviation=".408"/>
  </filter>
  <filter style="color-interpolation-filters:sRGB" id="filter1711" width="1.123" height="1.117" x="-.06" y="-.06">
   <feGaussianBlur stdDeviation=".605"/>
  </filter>
  <filter style="color-interpolation-filters:sRGB" id="filter1817" width="1.086" height="1.108" x="-.04" y="-.05">
   <feGaussianBlur stdDeviation="2.508"/>
  </filter>
 </defs>
 <g transform="translate(0,-229.26666)">
  <g style="enable-background:new" transform="matrix(0.12974173,0,0,0.12974173,3.8344818,227.85345)">
   <path d="m 301.90773,44.402363 c 148.15296,0 169.32628,21.120327 169.32628,169.135097 v 118.53478 c 0,148.01417 -21.17332,169.1351 -169.32628,169.1351 H 151.12641 c -148.1529701,0 -169.32628,-21.12093 -169.32628,-169.1351 V 213.53746 c 0,-148.01477 21.1733099,-169.135097 169.32628,-169.135097 z" style="opacity:0.2;fill:none;stroke:#000000;stroke-width:8.15723133;stroke-linecap:round;stroke-linejoin:round"/>
   <path d="m 162.53675,3.5680001 c 72.64865,0 83.03125,10.3566149 83.03125,82.9375049 v 58.125005 c 0,72.58059 -10.3826,82.9375 -83.03125,82.9375 H 88.599254 C 15.9506,227.56801 5.568,217.2111 5.568,144.63051 V 86.505505 c 0,-72.58089 10.3826,-82.9375049 83.031254,-82.9375049 z" transform="matrix(2.0393079,0,0,2.0393079,-29.55473,37.126102)" style="opacity:0.1;filter:url(#filter4569)"/>
   <path style="opacity:0.2;filter:url(#filter910)" d="m 162.53675,5.5680001 c 72.64865,0 83.03125,10.3566149 83.03125,82.9375049 v 58.125005 c 0,72.58059 -10.3826,82.9375 -83.03125,82.9375 H 88.599254 C 15.9506,229.56801 5.568,219.2111 5.568,146.63051 V 88.505505 c 0,-72.58089 10.3826,-82.9375049 83.031254,-82.9375049 z" transform="matrix(2.0393079,0,0,2.0393079,-29.55473,37.126102)"/>
   <path style="fill:#f7f7f7" d="m 301.90773,44.402363 c 148.15296,0 169.32628,21.120327 169.32628,169.135097 v 118.53478 c 0,148.01417 -21.17332,169.1351 -169.32628,169.1351 H 151.12641 c -148.1529701,0 -169.32628,-21.12093 -169.32628,-169.1351 V 213.53746 c 0,-148.01477 21.1733099,-169.135097 169.32628,-169.135097 z"/>
   <path d="M 361.9375,-212 C 507.2348,-212 528,-191.28677 528,-46.125 V 70.125 C 528,215.28618 507.2348,236 361.9375,236 H 214.0625 C 68.7652,236 48,215.28618 48,70.125 V -46.125 C 48,-191.28677 68.7652,-212 214.0625,-212 Z" clip-path="url(#clipPath1082-3-3675)" transform="matrix(1.0196539,0,0,1.0196539,-67.14326,260.569)" style="opacity:0.5;fill:none;stroke:url(#linearGradient1108);stroke-width:8;stroke-linecap:round;stroke-linejoin:round"/>
   <g transform="translate(-15.688491,-3.2063186)">
    <g transform="matrix(0.94984406,-0.34610176,0.34610176,0.94984406,-34.184671,103.67461)">
     <path d="M 153.69727 56.716797 L 116.81836 69.455078 L 104.97266 94.880859 L 80.34375 82.978516 L 41.210938 98.171875 L 91.066406 119.54688 L 91.949219 119.92969 L 68.453125 167.79492 L 105.33203 155.05664 L 117.17773 129.63086 L 141.80469 141.5332 L 180.93945 126.33984 L 131.08203 104.96484 L 130.20117 104.58203 L 153.69727 56.716797 z" transform="matrix(1.8953455,0.69062118,-0.69062118,1.8953455,49.219344,-76.371382)" style="fill:#383838;stroke:#000000;stroke-width:2.00000002"/>
     <path d="M 153.69727 56.716797 L 116.81836 69.455078 L 104.97266 94.880859 L 80.34375 82.978516 L 41.210938 98.171875 L 91.066406 119.54688 L 91.949219 119.92969 L 68.453125 167.79492 L 105.33203 155.05664 L 117.17773 129.63086 L 141.80469 141.5332 L 180.93945 126.33984 L 131.08203 104.96484 L 130.20117 104.58203 L 153.69727 56.716797 z" transform="matrix(1.8953455,0.69062118,-0.69062118,1.8953455,49.219344,-76.371382)" style="fill:#0e0e0e;filter:url(#filter1817);opacity:0.3"/>
     <path style="fill:#f40001" d="M 153.69727 56.716797 L 116.81836 69.455078 L 104.97266 94.880859 L 80.34375 82.978516 L 41.210938 98.171875 L 91.066406 119.54688 L 91.949219 119.92969 L 68.453125 167.79492 L 105.33203 155.05664 L 117.17773 129.63086 L 141.80469 141.5332 L 180.93945 126.33984 L 131.08203 104.96484 L 130.20117 104.58203 L 153.69727 56.716797 z" transform="matrix(1.8953455,0.69062118,-0.69062118,1.8953455,49.219344,-76.371382)"/>
     <path style="fill:none;stroke:#ffffff;stroke-width:2.01724863px" d="m 144.19179,136.38867 38.46028,39.5683"/>
     <path style="fill:none;stroke:#ffffff;stroke-width:2.01724863px" d="m 223.76898,211.76738 36.22424,34.84407"/>
    </g>
    <g transform="matrix(0.94984406,-0.34610176,0.34610176,0.94984406,-80.410849,91.111266)">
     <path style="fill:#130014" d="m 65.990234,122.45117 a 30,30 0 0 0 -30,30 30,30 0 0 0 30,30 30,30 0 0 0 30,-30 30,30 0 0 0 -30,-30 z m 0,15 a 15,15 0 0 1 15,15 15,15 0 0 1 -15,15 15,15 0 0 1 -15,-15 15,15 0 0 1 15,-15 z" transform="matrix(2.0393079,0,0,2.0393079,-29.55473,10.892486)"/>
     <path style="fill:#383838" d="m 38.904985,6.3408196 a 7.2759263,7.2759263 0 0 0 -6.798686,7.2519314 7.2759263,7.2759263 0 0 0 7.275927,7.275925 7.2759263,7.2759263 0 0 0 3.988563,-1.197102 7.319645,7.0081702 0 0 1 -1.964065,0.256843 7.319645,7.0081702 0 0 1 -4.449807,-1.453945 5.4569449,5.4569449 0 0 1 -3.031414,-4.881721 5.4569449,5.4569449 0 0 1 0.224845,-1.538369 7.319645,7.0081702 0 0 1 4.754637,-5.7135624 z" transform="matrix(4.4817672,0,0,4.4817672,-69.754197,260.72443)"/>
     <path style="fill:#bababa" d="m 65.990234,132.45117 a 19.999999,19.999999 0 0 0 -20,20 19.999999,19.999999 0 0 0 20,20 19.999999,19.999999 0 0 0 20,-20 19.999999,19.999999 0 0 0 -20,-20 z m 0,5 a 15,15 0 0 1 15,15 15,15 0 0 1 -15,15 15,15 0 0 1 -15,-15 15,15 0 0 1 15,-15 z" transform="matrix(2.0393079,0,0,2.0393079,-29.55473,10.892486)"/>
     <path style="fill:#ffffff;filter:url(#filter1711)" d="m 70.349609,127.3457 c -1.175644,0.002 -2.341512,0.11179 -3.486328,0.31641 a 22.499999,22.499999 0 0 1 0.511719,-0.0176 22.499999,22.499999 0 0 1 22.5,22.5 22.499999,22.499999 0 0 1 -0.101562,2.05859 c 0.390497,-1.56382 0.596435,-3.18664 0.597656,-4.83593 0,-11.05821 -8.963278,-20.02149 -20.021485,-20.02149 z" transform="matrix(2.0393079,0,0,2.0393079,-29.55473,10.892486)"/>
     <path style="fill:#383838" d="m 107.0789,312.71005 a 10.19654,10.19654 0 0 0 -4.90709,1.27457 10.19654,10.19654 0 0 1 0.0836,-0.004 10.19654,10.19654 0 0 1 10.19654,10.19653 10.19654,10.19654 0 0 1 -5.28547,8.92198 10.19654,10.19654 0 0 0 10.10892,-10.19257 10.19654,10.19654 0 0 0 -10.19654,-10.19654 z"/>
     <path style="fill:#bababa" d="m 58.851562,138.47656 -1.703124,1.04883 7.978515,12.96289 L 49.03125,152 l -0.06055,2 15.796875,0.47852 -7.628906,13.01562 1.724609,1.01172 7.865235,-13.41602 6.640062,10.69777 1.703124,-1.04883 L 68.773435,154.59961 81.9707,155 l 0.06055,-2 -13.832031,-0.41992 7.664062,-13.07422 -1.726562,-1.01172 -7.451172,12.71289 z" transform="matrix(2.0393079,0,0,2.0393079,-29.55473,10.892486)"/>
     <circle style="opacity:0.3;fill:#0a0707;filter:url(#filter1671)" cx="104.022" cy="323.908" r="10.197"/>
     <circle cx="104.022" cy="323.908" r="9.177" style="fill:#bababa"/>
    </g>
    <g transform="matrix(-0.94984406,0.34610176,-0.34610176,-0.94984406,564.82197,548.67517)">
     <path d="m 65.990234,122.45117 a 30,30 0 0 0 -30,30 30,30 0 0 0 30,30 30,30 0 0 0 30,-30 30,30 0 0 0 -30,-30 z m 0,15 a 15,15 0 0 1 15,15 15,15 0 0 1 -15,15 15,15 0 0 1 -15,-15 15,15 0 0 1 15,-15 z" transform="matrix(2.0393079,0,0,2.0393079,-29.55473,10.892486)" style="fill:#130014"/>
     <path d="m 38.904985,6.3408196 a 7.2759263,7.2759263 0 0 0 -6.798686,7.2519314 7.2759263,7.2759263 0 0 0 7.275927,7.275925 7.2759263,7.2759263 0 0 0 3.988563,-1.197102 7.319645,7.0081702 0 0 1 -1.964065,0.256843 7.319645,7.0081702 0 0 1 -4.449807,-1.453945 5.4569449,5.4569449 0 0 1 -3.031414,-4.881721 5.4569449,5.4569449 0 0 1 0.224845,-1.538369 7.319645,7.0081702 0 0 1 4.754637,-5.7135624 z" transform="matrix(4.4817672,0,0,4.4817672,-69.754197,260.72443)" style="fill:#383838"/>
     <path d="m 65.990234,132.45117 a 19.999999,19.999999 0 0 0 -20,20 19.999999,19.999999 0 0 0 20,20 19.999999,19.999999 0 0 0 20,-20 19.999999,19.999999 0 0 0 -20,-20 z m 0,5 a 15,15 0 0 1 15,15 15,15 0 0 1 -15,15 15,15 0 0 1 -15,-15 15,15 0 0 1 15,-15 z" transform="matrix(2.0393079,0,0,2.0393079,-29.55473,10.892486)" style="fill:#bababa"/>
     <path d="m 70.349609,127.3457 c -1.175644,0.002 -2.341512,0.11179 -3.486328,0.31641 a 22.499999,22.499999 0 0 1 0.511719,-0.0176 22.499999,22.499999 0 0 1 22.5,22.5 22.499999,22.499999 0 0 1 -0.101562,2.05859 c 0.390497,-1.56382 0.596435,-3.18664 0.597656,-4.83593 0,-11.05821 -8.963278,-20.02149 -20.021485,-20.02149 z" transform="matrix(2.0393079,0,0,2.0393079,-29.55473,10.892486)" style="fill:#ffffff;filter:url(#filter1711)"/>
     <path d="m 107.0789,312.71005 a 10.19654,10.19654 0 0 0 -4.90709,1.27457 10.19654,10.19654 0 0 1 0.0836,-0.004 10.19654,10.19654 0 0 1 10.19654,10.19653 10.19654,10.19654 0 0 1 -5.28547,8.92198 10.19654,10.19654 0 0 0 10.10892,-10.19257 10.19654,10.19654 0 0 0 -10.19654,-10.19654 z" style="fill:#383838"/>
     <path d="m 58.851562,138.47656 -1.703124,1.04883 7.978515,12.96289 L 49.03125,152 l -0.06055,2 15.796875,0.47852 -7.628906,13.01562 1.724609,1.01172 7.865235,-13.41602 6.640062,10.69777 1.703124,-1.04883 L 68.773435,154.59961 81.9707,155 l 0.06055,-2 -13.832031,-0.41992 7.664062,-13.07422 -1.726562,-1.01172 -7.451172,12.71289 z" transform="matrix(2.0393079,0,0,2.0393079,-29.55473,10.892486)" style="fill:#bababa"/>
     <circle cx="104.022" cy="323.908" r="10.197" style="opacity:0.3;fill:#0a0707;filter:url(#filter1671)"/>
     <circle style="fill:#bababa" cx="104.022" cy="323.908" r="9.177"/>
    </g>
   </g>
  </g>
 </g>
</svg>
